X:1
T:Ratcliffe Highway
M:3/4
L:1/4
K:C
 G| G E F| G G G| c B A| G2 E| G G G| G F E| D D D| D2 G| G E G| G G G|\
 c B A| G2 G| G G G| G F E| D C B,| C2 G| E3/2 E/2 E| E/2 G3/2 G| F3/2 F/2 F|\
 c3| A3/2 A/2 A| G E C| D C B,| C2||

